X:13421
%519
T:Althea
M:6/8
L:1/8
Q:1/4=120
C:Playford
S:Manuscript
O:Playford
A:English
K:Am
E/2F/2| G2 G G2 G| G3 E>FG| A2 A G2 F| E3 E2 E| D3 G,2 E| D3 A,B,C| D C2 C2
B,|C3 C2::
C|D3 D3 | CDE F2 A,| DED D2 C| D3 D2 G|G3 G D2| E3 E A,2| D C2 C2 B,| C3 C2

%Warning : whitespace in field declaration

%Warning : Potentially ambiguous line - either a :| repeat or a field command -- cannot distinguish.
C:: 


